world_stage/static/flags/rect/jor.svg

<svg height="600" viewBox="0 0 900.66669 600" width="900.66669" xmlns="http://www.w3.org/2000/svg"><g transform="matrix(1.3333333 0 0 -1.3333333 0 600)"><path d="m0 0h675.5v450h-675.5z"/><path d="m0 150h675.5v149.999h-675.5z" fill="#fff"/><path d="m0 0h675.5v150h-675.5z" fill="#007a3d"/></g><path d="m0 0v-450l337.75 225z" fill="#ce1126" transform="scale(1.3333333 -1.3333333)"/><path d="m0 0-19.176-1.788 2.527-19.153-13.351 13.921-13.352-13.921 2.527 19.153-19.175 1.788 16.5 9.961-10.559 16.161 18.051-6.736 6.008 18.356 6.007-18.356 18.051 6.736-10.562-16.161z" fill="#fff" transform="matrix(1.3333333 0 0 -1.3333333 196.0788 310.36453)"/></svg>

<?xml version="1.0" encoding="UTF-8" standalone="no"?>
<!-- Created with Inkscape (http://www.inkscape.org/) -->

<svg
   version="1.1"
   id="svg1"
   width="900.66669"
   height="600"
   viewBox="0 0 900.66669 600"
   sodipodi:docname="jo.ai"
   xmlns:inkscape="http://www.inkscape.org/namespaces/inkscape"
   xmlns:sodipodi="http://sodipodi.sourceforge.net/DTD/sodipodi-0.dtd"
   xmlns="http://www.w3.org/2000/svg"
   xmlns:svg="http://www.w3.org/2000/svg">
  <defs
     id="defs1" />
  <sodipodi:namedview
     id="namedview1"
     pagecolor="#ffffff"
     bordercolor="#000000"
     borderopacity="0.25"
     inkscape:showpageshadow="2"
     inkscape:pageopacity="0.0"
     inkscape:pagecheckerboard="0"
     inkscape:deskcolor="#d1d1d1">
    <inkscape:page
       x="0"
       y="0"
       inkscape:label="1"
       id="page1"
       width="900.66669"
       height="600"
       margin="0"
       bleed="0" />
  </sodipodi:namedview>
  <g
     id="layer-MC0"
     inkscape:groupmode="layer"
     inkscape:label="Layer 1">
    <path
       id="path1"
       d="M 0,0 H 675.5 V 450 H 0 Z"
       style="fill:#000000;fill-opacity:1;fill-rule:nonzero;stroke:none"
       transform="matrix(1.3333333,0,0,-1.3333333,0,600)" />
    <path
       id="path2"
       d="M 0,150 H 675.5 V 299.999 H 0 Z"
       style="fill:#ffffff;fill-opacity:1;fill-rule:nonzero;stroke:none"
       transform="matrix(1.3333333,0,0,-1.3333333,0,600)" />
    <path
       id="path3"
       d="M 0,0 H 675.5 V 150 H 0 Z"
       style="fill:#007a3d;fill-opacity:1;fill-rule:nonzero;stroke:none"
       transform="matrix(1.3333333,0,0,-1.3333333,0,600)" />
    <path
       id="path4"
       d="m 0,0 v -450 l 337.75,225 z"
       style="fill:#ce1126;fill-opacity:1;fill-rule:nonzero;stroke:none"
       transform="scale(1.3333333,-1.3333333)" />
    <path
       id="path5"
       d="M 0,0 -19.176,-1.788 -16.649,-20.941 -30,-7.02 -43.352,-20.941 -40.825,-1.788 -60,0 -43.5,9.961 -54.059,26.122 -36.008,19.386 -30,37.742 -23.993,19.386 -5.942,26.122 -16.504,9.961 Z"
       style="fill:#ffffff;fill-opacity:1;fill-rule:nonzero;stroke:none"
       transform="matrix(1.3333333,0,0,-1.3333333,196.0788,310.36453)" />
  </g>
</svg>
